packages/ui/public/icons/heart-gray.svg

<svg width="24" height="24" viewBox="0 0 24 24" fill="none" xmlns="http://www.w3.org/2000/svg">
<path fill-rule="evenodd" clip-rule="evenodd" d="M11.9932 5.13581C9.9938 2.7984 6.65975 2.16964 4.15469 4.31001C1.64964 6.45038 1.29697 10.029 3.2642 12.5604C4.89982 14.6651 9.84977 19.1041 11.4721 20.5408C11.6536 20.7016 11.7444 20.7819 11.8502 20.8135C11.9426 20.8411 12.0437 20.8411 12.1361 20.8135C12.2419 20.7819 12.3327 20.7016 12.5142 20.5408C14.1365 19.1041 19.0865 14.6651 20.7221 12.5604C22.6893 10.029 22.3797 6.42787 19.8316 4.31001C17.2835 2.19216 13.9925 2.7984 11.9932 5.13581Z" stroke="#A09FA6" stroke-width="2" stroke-linecap="round" stroke-linejoin="round"/>
</svg>

<svg width="24" height="24" fill="none" xmlns="http://www.w3.org/2000/svg"><path clip-rule="evenodd" d="M11.993 5.136c-2-2.338-5.333-2.966-7.838-.826s-2.858 5.719-.89 8.25c1.635 2.105 6.585 6.544 8.207 7.98.182.162.272.242.378.274a.504.504 0 0 0 .286 0c.106-.032.197-.112.378-.273 1.623-1.437 6.573-5.876 8.208-7.98 1.967-2.532 1.658-6.133-.89-8.251-2.549-2.118-5.84-1.512-7.839.826Z" stroke="#A09FA6" stroke-width="2" stroke-linecap="round" stroke-linejoin="round"/></svg>
